X:1
T:Mount Pleasant [1]
T:Mount Pleasant [1]
T:James Leach, 1789
C:James Leach, 1789
L:1/8
M:4/4
K:F
V:1 treble 
V:1
 F4 | A2 A2 G2 AB | c2 d2 c2 de | f2 e2 d2 e2 | f8 | c4 f2 e>d | c2 A2 B2 c>d | c6 F2 | %8
 GA B2 A2 G2 | F8 :| A4 c2 c2 | d2 d2 c>d c>B | A6 F2 | B2 A2 B2 d2 | c6 c2 | f2 e2 d2 e2 | f6 z2 | %17
 f2 ed c2 de | f6 z2 | f2 ed c2 z2 | d2 cB A2 z2 | BA G2 F2 z2 | FG AB c2 z2 | fe dc dc BA | %24
 G2 z2 z4 | FG AB c2 de | f2 ef g2 fd | f8 | c4 f2 ed | c2 A2 c2 cd | c6 F2 | GA B2 A2 G2 | F8 || %33

